svgs/microsoft_office.svg

<svg width="192" height="192" viewBox="0 0 192 192" fill="none" xmlns="http://www.w3.org/2000/svg"><path d="M102.379 22.587c6.613 1.89 11.179 7.95 11.188 14.851v10.84L74.248 62.541a10.69 10.69 0 0 0-6.996 10.03v36.288a10.675 10.675 0 0 1-5.51 9.371l-12.188 6.606c-5.22 2.841-11.569-.963-11.554-6.924v-55.15a14.935 14.935 0 0 1 7.508-12.968l45-25.763A15.58 15.58 0 0 1 98.16 22a15.011 15.011 0 0 1 4.218.586Zm0 0c6.616 1.888 11.18 7.946 11.188 14.85v117.269c.019 6.82-4.485 12.82-11.022 14.682l41.667-11.908c6.382-1.846 10.779-7.704 10.788-14.369V48.86c.003-6.683-4.415-12.556-10.819-14.384l-41.802-11.889Zm11.188 114.994H67.084c-7.964.086-10.752 10.647-3.875 14.68l27.688 15.757A15.08 15.08 0 0 0 98.381 170a14.534 14.534 0 0 0 4.168-.612c6.535-1.863 11.037-7.862 11.018-14.68v-17.127Z" stroke="#000" stroke-width="12"/></svg>

<svg id="vector" xmlns="http://www.w3.org/2000/svg" width="192" height="192" viewBox="0 0 192 192"><path fill="#00000000" d="M102.379,22.587C108.992,24.476 113.558,30.537 113.567,37.438V48.277L74.248,62.542C70.05,64.081 67.257,68.087 67.252,72.573V108.86C67.26,112.759 65.148,116.352 61.743,118.231L49.555,124.837C44.333,127.678 37.985,123.874 38,117.913V62.762C38,57.4 40.866,52.45 45.508,49.794L90.507,24.031C92.843,22.705 95.479,22.006 98.161,22C99.588,21.994 101.008,22.192 102.379,22.587ZM102.379,22.587C108.995,24.475 113.559,30.533 113.567,37.437V48.28V137.58V154.706C113.586,161.526 109.082,167.526 102.545,169.388L144.212,157.48C150.594,155.634 154.991,149.776 155,143.111V48.86C155.003,42.177 150.585,36.304 144.181,34.476L102.379,22.587ZM113.567,137.581H67.084C59.12,137.667 56.332,148.228 63.209,152.261L90.897,168.018C93.178,169.319 95.757,170.002 98.381,170C99.792,169.999 101.196,169.794 102.549,169.388C109.084,167.525 113.586,161.526 113.567,154.708V137.581Z" stroke-width="12" stroke="#000000" id="path_0"/></svg>
